X:9
T: Halewyn
N: A0015A
O: Europa, Mitteleuropa, Deutschland
R: Romanze, Ballade, Lied
M: 3/4
L: 1/4
K: C
CA,_B, | C2C | DC_B, | A,3 |
C_B,A, | G,F,G, | A,_B,C | D3 |
D_ED | C2D | CA,_B, | C3

@@@ Tune index: 9
